svgs/light/inbox-in.svg

<svg xmlns="http://www.w3.org/2000/svg" viewBox="0 0 512 512"><!--! Font Awesome Pro 6.0.0-alpha3 by @fontawesome - https://fontawesome.com License - https://fontawesome.com/license (Commercial License) --><path d="M244.7 315.3C247.8 318.4 251.9 320 256 320s8.188-1.562 11.31-4.688l112-112c6.25-6.25 6.25-16.38 0-22.62s-16.38-6.25-22.62 0L272 265.4V16c0-8.844-7.156-16-16-16S240 7.156 240 16v249.4L155.3 180.7c-6.25-6.25-16.38-6.25-22.62 0s-6.25 16.38 0 22.62L244.7 315.3zM464 320h-80c-6.061 0-11.6 3.424-14.31 8.844L342.1 384H169.9l-27.58-55.15C139.6 323.4 134.1 320 128 320H48C21.49 320 0 341.5 0 368v96C0 490.5 21.49 512 48 512h416c26.51 0 48-21.49 48-48v-96C512 341.5 490.5 320 464 320zM480 464c0 8.836-7.162 16-16 16h-416C39.16 480 32 472.8 32 464v-96C32 359.2 39.16 352 48 352h70.11l27.58 55.16C148.4 412.6 153.9 416 159.1 416H352c6.062 0 11.6-3.424 14.31-8.846L393.9 352H464c8.838 0 16 7.164 16 16V464z"/></svg>

<svg xmlns="http://www.w3.org/2000/svg" viewBox="0 0 512 512"><!-- Font Awesome Pro 6.0.0-alpha2 by @fontawesome - https://fontawesome.com License - https://fontawesome.com/license (Commercial License) --><path d="M244.688 315.312C247.812 318.438 251.906 320 256 320S264.188 318.438 267.312 315.312L379.312 203.312C385.562 197.062 385.562 186.937 379.312 180.688S362.937 174.438 356.688 180.688L272 265.375V16C272 7.156 264.844 0 256 0S240 7.156 240 16V265.375L155.312 180.688C149.062 174.438 138.937 174.438 132.688 180.688S126.438 197.063 132.688 203.312L244.688 315.312ZM464 320H383.998C377.938 320 372.398 323.424 369.688 328.844L342.109 384H169.891L142.314 328.846C139.604 323.424 134.062 320 128 320H48C21.49 320 0 341.49 0 368V464C0 490.51 21.49 512 48 512H464C490.51 512 512 490.51 512 464V368C512 341.49 490.51 320 464 320ZM480 464C480 472.836 472.838 480 464 480H48C39.164 480 32 472.836 32 464V368C32 359.164 39.164 352 48 352H118.109L145.688 407.156C148.398 412.576 153.938 416 159.998 416H352C358.062 416 363.604 412.576 366.314 407.154L393.891 352H464C472.838 352 480 359.164 480 368V464Z"/></svg>
